X: 20
T: The Fly go
%R: reel
B: "Twenty Four Country Dances for the Year 1799", Thomas Skillern, ed. p.10 #2
F: http://www.vwml.org/browse/browse-collections-dance-tune-books/browse-skillerns1799
Z: 2014 John Chambers <jc:trillian.mit.edu>
M: C
L: 1/8
K: D
fg |\
afaf dfed | cdea ABAG |\
FAdf gfed | ceAA A2fg |\
afaf dfaf |
edcB ABAG |\
FAdf Bgec | d2d2 d2 :|\
|: cd |\
eAA2 eAgA | fAA2 fAaA |
gfed dcB^A | ^ABBB B2=AG |\
FAd=c BGed | cAfe dBgf |\
eAag fedc | d2d2 d2 :|
%%begintext align
%% Swing your Partner with right hand and Cast off
%% 1 Cu: and swing with left hand, 2d Cu: do the same,
%% Down middle up again and sett to the top Cu:,
%% Hands 4 at bottom Right and left at top.
%%endtext

%%sep 1 1 500
%%sep 1 1 500
